X: 2125
T: Atlantic Drive
R: jig
M: 6/8
K: Aminor
cde BGA|zAA GAE|EDG E2D|EAA GAB|
cde BGA|zAA GAE|EDG EGA|cBG AB/c/d|
cde BGA|zAA GAE|EDG E2A|cB/c/d cdg|
edc BGA|zAA GAE|EDG EGA|cBG ABc||
d2e cAA|d2e cAB|cde ggg|gea gec|
d2e cAA|d2e cAB|cde cdB|cAB GED|
d2e cAA|d2e cAB|cde ggg|gea gec|
d2e cAA|d2e cAg|ze=f dec|dAc B/c/dg||

